X:27
T:Perdriole [ok : mais mode de A ou D ]
R:
S:
N:
A:Champagne
G:
O:France
Z:<anamnese@laposte.net>
M:2/4
L:1/8
Q:1/4=135
K:A
d2 A>B | A2 A>B | A>G F>E | F2D2 | d2 A>B | A2 A>B | A>G F>E | D2 D>F | F>E F>G | A2 A>B |
A>G F>E | F2 D>F | F>E F>G | A2 A>B | A>G F>E | D2 D>c | D>D D>D | D>D E>E | A>A F2 |
D>c D>D | D>D D>D | E>E A>A | D4 | FF FG | A2 FA | G2 E>G | F2E2 | FF FG | A2 FA | GF DC | D4 ||
